build/img/main/send.svg

<svg width="39" height="40" viewBox="0 0 39 40" fill="none" xmlns="http://www.w3.org/2000/svg">
<g clip-path="url(#clip0)">
<path d="M38.8015 1.63862C38.6279 1.48245 38.3808 1.44622 38.1714 1.54583L0.337335 19.5754C0.133649 19.6725 0.00248325 19.8809 3.48189e-05 20.1112C-0.00241361 20.3415 0.124438 20.5528 0.326142 20.6543L11.0331 26.0436C11.2295 26.1425 11.4636 26.1202 11.6389 25.9858L22.0491 18.0056L13.8767 26.6274C13.7601 26.7505 13.7006 26.919 13.7135 27.09L14.5272 37.9586C14.5452 38.1995 14.7026 38.4054 14.9264 38.4808C14.9862 38.5009 15.0476 38.5107 15.1084 38.5107C15.275 38.5107 15.437 38.4374 15.5498 38.3035L21.2327 31.5493L28.258 34.992C28.4105 35.0668 28.587 35.0699 28.7419 35.0008C28.8969 34.9315 29.0149 34.7969 29.0655 34.6316L38.9732 2.26726C39.0425 2.04125 38.975 1.7948 38.8015 1.63862Z" fill="black"/>
</g>
<defs>
<clipPath id="clip0">
<rect width="39" height="40" fill="white"/>
</clipPath>
</defs>
</svg>

<svg width="39" height="40" fill="none" xmlns="http://www.w3.org/2000/svg"><g clip-path="url(#clip0)"><path d="M38.801 1.639a.572.572 0 00-.63-.093L.337 19.576A.599.599 0 000 20.11a.6.6 0 00.326.543l10.707 5.39a.57.57 0 00.606-.058l10.41-7.98-8.172 8.621a.607.607 0 00-.164.463l.814 10.869c.018.24.176.446.4.522a.57.57 0 00.623-.178l5.683-6.754 7.025 3.443a.57.57 0 00.484.009.593.593 0 00.323-.37l9.908-32.364a.608.608 0 00-.172-.628z" fill="#000"/></g><defs><clipPath id="clip0"><path fill="#fff" d="M0 0h39v40H0z"/></clipPath></defs></svg>
